packages/astro-components-stencil/src/icons/attachment.svg

<svg width="24" height="24" viewBox="0 0 24 24" fill="none" xmlns="http://www.w3.org/2000/svg">
<path d="M17.75 16H7.17002C5.08002 16 3.22002 14.47 3.02002 12.39C2.79002 10.01 4.66002 8 7.00002 8H19.36C20.67 8 21.86 8.94 21.99 10.24C22.14 11.74 20.97 13 19.5 13H9.00002C8.45002 13 8.00002 12.55 8.00002 12C8.00002 11.45 8.45002 11 9.00002 11H17.75C18.16 11 18.5 10.66 18.5 10.25C18.5 9.84 18.16 9.5 17.75 9.5H9.14002C7.83002 9.5 6.64002 10.44 6.51002 11.74C6.36002 13.24 7.53002 14.5 9.00002 14.5H19.33C21.42 14.5 23.28 12.97 23.48 10.89C23.71 8.5 21.84 6.5 19.5 6.5H7.23002C4.36002 6.5 1.79002 8.6 1.52002 11.46C1.22002 14.75 3.78002 17.5 7.00002 17.5H17.75C18.16 17.5 18.5 17.16 18.5 16.75C18.5 16.34 18.16 16 17.75 16Z" fill="black"/>
</svg>

<svg xmlns="http://www.w3.org/2000/svg" viewBox="0 0 24 24"><g xmlns="http://www.w3.org/2000/svg" id="attachment" fill-rule="nonzero">
            <path d="M17.75 16H7.17c-2.09 0-3.95-1.53-4.15-3.61A3.998 3.998 0 017 8h12.36c1.31 0 2.5.94 2.63 2.24A2.5 2.5 0 0119.5 13H9c-.55 0-1-.45-1-1s.45-1 1-1h8.75c.41 0 .75-.34.75-.75s-.34-.75-.75-.75H9.14c-1.31 0-2.5.94-2.63 2.24A2.5 2.5 0 009 14.5h10.33c2.09 0 3.95-1.53 4.15-3.61A3.993 3.993 0 0019.5 6.5H7.23c-2.87 0-5.44 2.1-5.71 4.96A5.505 5.505 0 007 17.5h10.75c.41 0 .75-.34.75-.75s-.34-.75-.75-.75z"/>
        </g></svg>
